X:1
T:The Liberty Tree
M:6/4
L:1/4
K:C
 A/2A/2| E A A G A B| c d c B- c d| e c A d B G| A3- A2 A| E A A G A B|\
 c d c B- c d| e c A d B G| A3- A2 d| c d f f/2- e3/2 A/2A/2| c e c B/2- d3/2 B|\
 c B A A B c| B3 z2 A| E A A G A B| c d c B c- d| e c A e d B| A3- A3|\
